public/logo-white.svg

<svg width="60" height="70" viewBox="0 0 60 70" fill="none" xmlns="http://www.w3.org/2000/svg">
<path fill-rule="evenodd" clip-rule="evenodd" d="M16.9307 23.3833C14.7642 23.3833 13.6929 25.7216 13.6929 27.8882C13.6929 30.0547 14.7642 32.393 16.9307 32.393C19.0973 32.393 20.1686 30.0547 20.1686 27.8882C20.1686 25.7216 19.0973 23.3833 16.9307 23.3833ZM15.1004 27.8883C15.0704 26.5309 15.5761 24.8346 16.9305 24.932C18.2304 25.0255 18.5055 26.5853 18.479 27.8883C18.4535 29.143 18.1819 30.6117 16.9305 30.7039C15.6226 30.8002 15.1293 29.1994 15.1004 27.8883Z" fill="white"/>
<path d="M5.10512 46.33C4.77412 46.0404 5.10512 45.2038 5.10512 45.2038C5.10512 45.2038 8.35551 42.4515 10.0323 40.4174C11.7091 38.3832 13.6925 34.7863 13.6925 34.7863C13.6925 34.7863 14.7343 34.4962 14.6779 35.2086C14.2799 40.2415 6.09055 46.33 6.09055 46.33C6.09055 46.33 5.39474 46.5834 5.10512 46.33Z" fill="white"/>
<path d="M7.90822 65.2275C7.25619 65.1512 7.15472 63.911 7.15472 63.911C7.15472 63.911 9.81341 58.118 10.7739 54.4115C11.7345 50.7049 12.5663 44.9223 12.5663 44.9223C12.5663 44.9223 13.5754 43.6225 13.9741 44.5C16.7903 50.6986 9.27255 64.4466 9.27255 64.4466C9.27255 64.4466 8.47875 65.2942 7.90822 65.2275Z" fill="white"/>
<path d="M16.7196 68.8563C16.0739 68.9745 15.6132 67.8186 15.6132 67.8186C15.6132 67.8186 16.4564 61.5007 16.2879 57.6754C16.1193 53.8501 15.219 48.0777 15.219 48.0777C15.219 48.0777 15.8026 46.5391 16.441 47.2612C20.951 52.3615 17.795 67.7096 17.795 67.7096C17.795 67.7096 17.2847 68.7528 16.7196 68.8563Z" fill="white"/>
<path d="M24.2506 40.136C21.2857 39.7412 18.0565 35.6311 18.0565 35.6311C18.0565 35.6311 17.5499 35.8008 17.3526 36.0534C17.0141 36.4867 17.3526 37.4612 17.3526 37.4612C17.3526 37.4612 21.466 41.6326 24.8137 41.6845C26.5072 41.7108 29.0371 40.6991 29.0371 40.6991C29.6002 40.6991 30.2563 41.0701 30.8672 40.6991C31.4151 40.3662 31.4772 39.7606 31.7118 39.2913C31.7118 39.2913 30.0796 39.2266 29.0371 39.2913C27.1426 39.4088 26.1321 40.3865 24.2506 40.136Z" fill="white"/>
<path d="M29.7412 38.4467L33.4014 28.17C33.4014 28.17 33.0272 28.0458 32.8383 27.8884C32.2048 27.3605 32.8383 25.7768 32.8383 25.7768C32.8383 25.7768 32.87 25.4046 32.9791 25.2137C33.0774 25.0416 33.4014 24.9321 33.4014 24.9321L37.7655 26.4807C37.7655 26.4807 37.9874 26.8053 38.047 27.0438C38.1137 27.3105 38.0886 27.4759 38.047 27.7477C37.8767 28.8628 35.9354 29.7185 35.9354 29.7185L32.1344 38.7283L29.7412 38.4467Z" fill="white" stroke="white"/>
<path d="M25.2361 52.9469L28.8963 41.544H30.7264L25.5176 53.7916C25.5176 53.7916 25.2882 53.5605 25.2361 53.3693C25.1927 53.2101 25.2361 52.9469 25.2361 52.9469Z" fill="white" stroke="white"/>
<path d="M34.1055 18.597C35.1709 16.272 37.3904 14.7635 39.7365 15.7814C42.1474 16.8274 42.5459 20.0206 41.4259 22.3979C40.357 24.6667 38.2647 26.0028 35.9356 25.0727C33.4806 24.0924 33.0042 21.0001 34.1055 18.597Z" fill="white"/>
<path d="M41.7075 22.2573L59.0231 27.466" stroke="white"/>
<path d="M41.9888 20.5679L53.3917 19.4417" stroke="white"/>
<path d="M41.8481 18.4563L57.6152 10.5728" stroke="white"/>
<path d="M41.144 16.767L47.9013 9.02423" stroke="white"/>
<path d="M39.1733 15.5L43.6782 1" stroke="white"/>
<path d="M37.0616 15.5001L36.4985 5.64569" stroke="white"/>
<path d="M35.3725 16.6263L27.7705 2.83014" stroke="white"/>
<path d="M34.2462 18.1748L25.5181 10.8544" stroke="white"/>
<path d="M33.6831 19.8642L17.353 13.9516" stroke="white"/>
<path d="M33.5427 21.4127L21.999 22.1165" stroke="white"/>
<path d="M33.965 23.102L20.7319 29.5777" stroke="white"/>
<path d="M41.0034 23.9466L49.8724 31.8301" stroke="white"/>
</svg>

<svg width="60" height="70" fill="none" xmlns="http://www.w3.org/2000/svg"><path fill-rule="evenodd" clip-rule="evenodd" d="M16.93 23.383c-2.166 0-3.237 2.339-3.237 4.505 0 2.167 1.071 4.505 3.238 4.505 2.166 0 3.238-2.338 3.238-4.505 0-2.166-1.072-4.505-3.238-4.505zm-1.83 4.505c-.03-1.357.476-3.053 1.83-2.956 1.3.094 1.576 1.653 1.549 2.956-.026 1.255-.297 2.724-1.549 2.816-1.307.096-1.8-1.505-1.83-2.816z" fill="#fff"/><path d="M5.105 46.33c-.33-.29 0-1.126 0-1.126s3.25-2.752 4.927-4.787c1.677-2.034 3.66-5.63 3.66-5.63s1.042-.29.986.422C14.28 40.24 6.09 46.33 6.09 46.33s-.696.253-.986 0zM7.908 65.228c-.652-.077-.753-1.317-.753-1.317s2.658-5.793 3.619-9.5c.96-3.706 1.792-9.489 1.792-9.489s1.01-1.3 1.408-.422c2.816 6.199-4.701 19.947-4.701 19.947s-.794.847-1.365.78z" fill="#fff"/><path d="M16.72 68.856c-.646.119-1.107-1.037-1.107-1.037s.843-6.318.675-10.144c-.169-3.825-1.069-9.597-1.069-9.597s.584-1.539 1.222-.817c4.51 5.1 1.354 20.449 1.354 20.449s-.51 1.043-1.075 1.146zM24.25 40.136c-2.964-.395-6.194-4.505-6.194-4.505s-.506.17-.703.422c-.339.434 0 1.408 0 1.408s4.113 4.172 7.46 4.224c1.694.026 4.224-.986 4.224-.986.563 0 1.22.371 1.83 0 .548-.333.61-.938.845-1.408 0 0-1.632-.064-2.675 0-1.894.118-2.905 1.096-4.786.845z" fill="#fff"/><path d="m29.741 38.447 3.66-10.277s-.374-.124-.563-.282c-.633-.528 0-2.111 0-2.111s.032-.372.141-.563c.098-.172.422-.282.422-.282l4.364 1.549s.222.324.282.563c.067.267.042.432 0 .704-.17 1.115-2.112 1.97-2.112 1.97l-3.8 9.01-2.394-.281zM25.236 52.947l3.66-11.403h1.83l-5.208 12.248s-.23-.232-.282-.423c-.043-.159 0-.422 0-.422z" fill="#fff" stroke="#fff"/><path d="M34.105 18.597c1.066-2.325 3.285-3.834 5.632-2.816 2.41 1.046 2.809 4.24 1.689 6.617-1.069 2.269-3.161 3.605-5.49 2.675-2.455-.98-2.932-4.073-1.83-6.476z" fill="#fff"/><path d="m41.708 22.257 17.315 5.209M41.989 20.568l11.403-1.126M41.848 18.456l15.767-7.883M41.144 16.767l6.757-7.743M39.173 15.5 43.678 1M37.062 15.5l-.563-9.854M35.373 16.626 27.77 2.83M34.246 18.175l-8.728-7.32M33.683 19.864l-16.33-5.912M33.543 21.413l-11.544.703M33.965 23.102l-13.233 6.476M41.003 23.947l8.87 7.883" stroke="#fff"/></svg>
